seeds/icons/toilet.svg

<svg id="Layer_1" enable-background="new 0 0 512 512" height="1.5rem" viewBox="0 0 512 512" width="1.5rem" xmlns="http://www.w3.org/2000/svg"><path d="m482.647 264.033c0-25.99-21.145-47.134-47.135-47.134h-175.325v-161.733c0-30.418-24.749-55.166-55.168-55.166h-120.5c-30.419 0-55.166 24.748-55.166 55.166v208.867c0 9.72 2.959 18.762 8.021 26.274 8.486 30.207 23.78 58.704 44.381 82.561 18.875 21.86 42.268 39.938 68.098 52.699v71.433c0 8.284 6.716 15 15 15h160.666c8.284 0 15-6.716 15-15v-71.428c48.505-23.913 86.445-65.346 105.968-115.709 20.712-4.96 36.16-23.619 36.16-45.83zm-406.162-47.134c-6.043 0-11.818 1.156-17.133 3.237v-125.869h170.834v122.633h-153.701zm8.034-186.899h120.5c13.878 0 25.168 11.29 25.168 25.166v9.101h-170.834v-9.101c0-13.876 11.289-25.166 25.166-25.166zm234.994 372.261c-5.463 2.387-8.994 7.783-8.994 13.745v65.994h-130.666v-65.994c0-5.962-3.531-11.358-8.994-13.745-41.206-18.005-74.623-50.916-93.727-91.095h336.165c-19.093 40.415-52.384 73.005-93.784 91.095zm116-121.095h-359.028c-9.447 0-17.133-7.686-17.133-17.133 0-9.448 7.686-17.134 17.133-17.134h359.027c9.448 0 17.135 7.686 17.135 17.134 0 9.447-7.686 17.133-17.134 17.133z"/></svg>

<svg xmlns="http://www.w3.org/2000/svg" width="1.5rem" height="1.5rem" viewBox="0 0 512 512"><path d="M482.647 264.033c0-25.99-21.145-47.134-47.135-47.134H260.187V55.166C260.187 24.748 235.438 0 205.019 0h-120.5C54.1 0 29.353 24.748 29.353 55.166v208.867c0 9.72 2.959 18.762 8.021 26.274 8.486 30.207 23.78 58.704 44.381 82.561 18.875 21.86 42.268 39.938 68.098 52.699V497c0 8.284 6.716 15 15 15h160.666c8.284 0 15-6.716 15-15v-71.428c48.505-23.913 86.445-65.346 105.968-115.709 20.712-4.96 36.16-23.619 36.16-45.83M76.485 216.899a46.9 46.9 0 0 0-17.133 3.237V94.267h170.834V216.9zM84.519 30h120.5c13.878 0 25.168 11.29 25.168 25.166v9.101H59.353v-9.101C59.353 41.29 70.642 30 84.519 30m234.994 372.261a15 15 0 0 0-8.994 13.745V482H179.853v-65.994a15 15 0 0 0-8.994-13.745c-41.206-18.005-74.623-50.916-93.727-91.095h336.165c-19.093 40.415-52.384 73.005-93.784 91.095m116-121.095H76.485c-9.447 0-17.133-7.686-17.133-17.133 0-9.448 7.686-17.134 17.133-17.134h359.027c9.448 0 17.135 7.686 17.135 17.134 0 9.447-7.686 17.133-17.134 17.133"/></svg>
